src/assets/img/icons/dark/icon-technologies-snow.svg

<svg width="100" height="87" viewBox="0 0 100 87" fill="none" xmlns="http://www.w3.org/2000/svg">
<path opacity="0.7" fill-rule="evenodd" clip-rule="evenodd" d="M39.1989 27.0739L14.9011 69.287L9.22826 59.6402L15.7772 48.3337L2.77174 48.3L0 43.4794L2.83043 38.5489L21.3413 38.6076L27.9946 27.1022L39.1989 27.0728V27.0739ZM41.063 60.8196L89.6544 60.8217L84.163 70.5739L71.1293 70.537L77.6022 81.8522L74.8261 86.6717L69.1554 86.6772L59.9489 70.5663L46.6913 70.5391L41.063 60.8196ZM69.3456 42.3217L45.0522 0.104348L56.2152 0L62.7022 11.3424L69.2348 0.0586956L74.7815 0.0619565L77.6217 4.98587L68.3163 21.0391L74.9217 32.5717L69.3456 42.3207V42.3217Z" fill="white"/>
<path fill-rule="evenodd" clip-rule="evenodd" d="M30.4305 44.462L54.7239 86.6794L43.5609 86.7837L37.0739 75.4413L30.5413 86.7239L24.9946 86.7207L22.1533 81.7967L31.4598 65.7435L24.8533 54.2109L30.4305 44.462ZM58.6479 25.8576L10.0565 25.8554L15.5479 16.1033L28.5826 16.1402L22.1098 4.825L24.8848 0.00434782L30.5565 0L39.762 16.1109L53.0207 16.138L58.6479 25.8576ZM60.5435 59.7011L84.8413 17.487L90.5152 27.1337L83.9663 38.4402L96.9707 38.4739L99.7424 43.2946L96.912 48.225L78.4011 48.1663L71.7489 59.6717L60.5435 59.7011Z" fill="white"/>
</svg>

<svg xmlns="http://www.w3.org/2000/svg" width="100" height="87" fill="none"><path fill="#fff" fill-rule="evenodd" d="M39.2 27.07L14.9 69.3l-5.67-9.65 6.55-11.3-13-.04L0 43.48l2.83-4.93 18.51.06L28 27.1l11.2-.04zm1.86 33.75h48.6l-5.5 9.75-13.03-.03 6.47 11.31-2.77 4.82h-5.67l-9.21-16.1-13.26-.03-5.63-9.72zm28.29-18.5L45.05.1 56.22 0l6.48 11.34L69.23.06h5.55L77.62 5l-9.3 16.05 6.6 11.53-5.57 9.75z" clip-rule="evenodd" opacity=".7"/><path fill="#fff" fill-rule="evenodd" d="M30.43 44.46l24.3 42.22-11.17.1-6.49-11.34-6.53 11.28H25l-2.84-4.92 9.31-16.06-6.6-11.53 5.57-9.75zm28.22-18.6h-48.6l5.5-9.76 13.03.04-6.47-11.32L24.88 0h5.68l9.2 16.11 13.26.03 5.63 9.72zm1.9 33.84l24.3-42.21 5.67 9.64-6.55 11.31 13 .03 2.77 4.82-2.83 4.94-18.5-.06-6.66 11.5-11.2.03z" clip-rule="evenodd"/></svg>
